X: 152
T:William Kimbers Schottische
M:4/4
L:1/8
Q:120
K:G
B>A | G>FG>A B>c (3dcB | c>Bc>d e>f (3gfe | d>e (3dcB c>d (3cBA | B>AG>A
 (3ABc d2 | 
| G>FG>A B>c (3dcB | c>Bc>d e>f (3gfe | d>e (3dcB c>d (3cBA | G2 B2 G2 |
|
B>A | (3GBd (3gdB  (3GBd g>f | e>f (3gfe d>c B2 | c>d (3efe d>BG>B | A2
e2 f>e d2 |
 (3GBd (3gdB  (3GBd g>f | e>f (3gfe d>c B2 | c>d (3efe d>B (3GAB | A2 F2
 G2 ||
